Yaru++/mimetypes/48/text-x-maven+xml.svg

<svg height="48" viewBox="0 0 12.7 12.7" width="48" xmlns="http://www.w3.org/2000/svg" xmlns:xlink="http://www.w3.org/1999/xlink"><linearGradient id="a" gradientUnits="userSpaceOnUse" x1="6.350384" x2="6.350384" y1=".396869" y2="12.038536"><stop offset="0" stop-color="#fff"/><stop offset=".125" stop-color="#fff" stop-opacity=".098039"/><stop offset=".92500001" stop-color="#fff" stop-opacity=".098039"/><stop offset="1" stop-color="#fff" stop-opacity=".498039"/></linearGradient><linearGradient id="b" gradientUnits="userSpaceOnUse" x1="8.46705" x2="8.46705" xlink:href="#c" y1="6.482286" y2="8.069786"/><linearGradient id="c"><stop offset="0" stop-color="#f69923"/><stop offset=".33127922" stop-color="#cc2235"/><stop offset=".66221952" stop-color="#b02050"/><stop offset="1" stop-color="#7c28d7"/></linearGradient><linearGradient id="d" gradientUnits="userSpaceOnUse" x1="6.350384" x2="6.350384" xlink:href="#c" y1="5.423953" y2="9.128119"/><linearGradient id="e" gradientUnits="userSpaceOnUse" x1="4.233717" x2="4.233717" xlink:href="#c" y1="6.482286" y2="8.069786"/><linearGradient id="f" gradientTransform="matrix(0 -.02997233 .02997147 0 -3.039658 13.626036)" gradientUnits="userSpaceOnUse" x1="459.03448" x2="35.310345" y1="419.23337" y2="207.36522"><stop offset="0" stop-color="#f2f2f2"/><stop offset="1" stop-color="#f9f9f9"/></linearGradient><path d="m4.1624031.39686967c-.5881423-.008959-1.0513696.0135414-1.4324701.0775147-.3811032.063972-.692957.18396453-.9213929.411861-.2284333.22789673-.3490013.53961003-.412377.92087403-.0633756.3812644-.0757475.845434-.0728636 1.4350545v3.2401124 3.2416626c-.00286.5887141.00955 1.0526491.072864 1.4335031.063376.381265.1839437.692978.412377.920875.2284359.227896.5402897.34789.9213929.411861.3811032.06397.844259.07752 1.4324701.07752h4.3759596c.5882111 0 1.0511261-.01352 1.4314382-.07752.3803117-.064.6912127-.184399.9188047-.412377.227595-.227978.347451-.53947.411345-.920359.06389-.380886.07752-.844114.07752-1.4335031v-3.2416626-3.175l-2.8391083-2.84375406z" opacity=".1"/><path d="m4.1625645.39686967c-2.334731 0-2.585945.23980511-2.5745017 2.57925883v3.2415745 3.2415744c-.011457 2.3394536.2397707 2.5792586 2.5745017 2.5792586h4.375994c2.3347305 0 2.5745015-.239779 2.5745015-2.5792586v-3.2415744l-.000177-3.175-2.6458334-2.64583333z" fill="none" opacity=".2" stroke="#000" stroke-width=".529167"/><path d="m4.1625645.39686967c-2.334731 0-2.585945.23980511-2.5745017 2.57925883v3.2415745 3.2415744c-.011457 2.3394536.2397707 2.5792586 2.5745017 2.5792586h4.375994c2.3347305 0 2.5745015-.239779 2.5745015-2.5792586v-3.2415744l-.000177-3.175-2.6458334-2.64583333z" fill="url(#f)"/><path d="m3.6401155 7.2761474 1.6019172.6588178-.1173215.3474588-1.9493786-.8257778v-.3609975l1.9493786-.825777.1173215.3474579z" fill="url(#e)"/><path d="m5.8036214 9.4601717h-.4286832l1.5297203-4.3680486h.4196583z" fill="url(#d)"/><path d="m7.4586325 6.6173296.1173242-.3474579 1.9493759.825777v.3609975l-1.9493759.8257778-.1173242-.3474588 1.6019198-.6588178z" fill="url(#b)"/><path d="m1.5878829 6.217703v3.2416625c-.011457 2.3394525.2397892 2.5791705 2.5745202 2.5791705h4.3759596c2.3347313 0 2.5745203-.239691 2.5745203-2.5791705v-3.2416625z" fill="#fff" opacity=".2"/><path d="m6.3503829.39686967v11.64166633h2.1879798c2.3347313 0 2.5745203-.239691 2.5745203-2.5791705v-3.2416625-3.175l-2.6458334-2.64583333z" fill="#fff" opacity=".1"/><path d="m4.1624031.39686967c-2.334731 0-2.5859635.239717-2.5745202 2.57917073v3.2416626 3.2416625c-.011457 2.3394525.2397892 2.5791705 2.5745202 2.5791705h4.3759596c2.3347313 0 2.5745203-.239691 2.5745203-2.5791705v-3.2416625-3.175h-.264583v3.175 3.2416625c0 .5803505-.01625 1.0241215-.07028 1.3461695-.05402.322051-.139878.509149-.264068.633556-.12419.124394-.310716.21051-.632002.264583-.3212889.05406-.7644342.07028-1.3435886.07028h-4.3759583c-.5791544 0-1.0228501-.01619-1.3451391-.07028-.3222863-.054105-.5103204-.140097-.6351032-.264583-.1247801-.124495-.2105977-.311367-.2640647-.633037-.0534697-.32167-.0684715-.765549-.0656299-1.345655v-.0005292-3.2421668-3.2421793-.0005292c-.00283-.5801064.012171-1.0239838.06563-1.3456544.05347-.3216707.1392846-.5085498.2640647-.63303625.1247802-.12448646.3133355-.21048398.6356218-.26458333.3222863-.0540745.7654661-.0702675 1.3446205-.0702675h4.3046465v-.26458334z" fill="url(#a)" opacity=".4"/><path d="m11.112883 3.3072863v-.2645833l-2.6458334-2.64583333h-.2645834v1.11364553.04267.022918c0 1.506003.2016019 1.7382252 1.7110604 1.7308441z" opacity=".2"/><path d="m11.112883 3.0423643-2.6458334-2.64549516v.98132416.04267.022918c0 1.5060031.069406 1.6059637 1.5788644 1.5985826z" fill="#faf8f6"/></svg>

<?xml version="1.0" encoding="UTF-8" standalone="no"?>
<svg
   xmlns:dc="http://purl.org/dc/elements/1.1/"
   xmlns:cc="http://creativecommons.org/ns#"
   xmlns:rdf="http://www.w3.org/1999/02/22-rdf-syntax-ns#"
   xmlns:svg="http://www.w3.org/2000/svg"
   xmlns="http://www.w3.org/2000/svg"
   xmlns:xlink="http://www.w3.org/1999/xlink"
   xmlns:sodipodi="http://sodipodi.sourceforge.net/DTD/sodipodi-0.dtd"
   xmlns:inkscape="http://www.inkscape.org/namespaces/inkscape"
   height="48"
   viewBox="0 0 12.7 12.7"
   width="48"
   version="1.1"
   id="svg35"
   sodipodi:docname="text-x-maven+xml.svg"
   inkscape:version="0.92.5 (2060ec1f9f, 2020-04-08)">
  <metadata
     id="metadata41">
    <rdf:RDF>
      <cc:Work
         rdf:about="">
        <dc:format>image/svg+xml</dc:format>
        <dc:type
           rdf:resource="http://purl.org/dc/dcmitype/StillImage" />
        <dc:title />
      </cc:Work>
    </rdf:RDF>
  </metadata>
  <defs
     id="defs39">
    <clipPath
       clipPathUnits="userSpaceOnUse"
       id="clipPath994">
      <path
         style="color:#000000;display:inline;overflow:visible;visibility:visible;fill:#cdcdcd;fill-opacity:1;fill-rule:nonzero;stroke:none;stroke-width:2;stroke-miterlimit:4;stroke-dasharray:none;stroke-opacity:1;marker:none;enable-background:accumulate"
         d="m 335.73108,62 c -8.82418,0 -9.77365,0.90635 -9.7304,9.74838 V 84 96.25162 c -0.0433,8.84203 0.90622,9.74838 9.7304,9.74838 h 16.53919 c 8.82418,0 9.7304,-0.90625 9.7304,-9.74838 V 84 71.74838 C 362.00067,62.90625 361.09445,62 352.27027,62 Z"
         id="path996"
         inkscape:connector-curvature="0"
         sodipodi:nodetypes="scccssscsss" />
    </clipPath>
    <linearGradient
       gradientTransform="matrix(0.26458333,0,0,0.26458333,-84.666282,-16.007297)"
       inkscape:collect="always"
       xlink:href="#linearGradient927"
       id="linearGradient1004"
       x1="344"
       y1="62"
       x2="344"
       y2="106"
       gradientUnits="userSpaceOnUse" />
    <linearGradient
       inkscape:collect="always"
       id="linearGradient927">
      <stop
         style="stop-color:#ffffff;stop-opacity:1;"
         offset="0"
         id="stop923" />
      <stop
         id="stop933"
         offset="0.125"
         style="stop-color:#ffffff;stop-opacity:0.09803922" />
      <stop
         id="stop931"
         offset="0.92500001"
         style="stop-color:#ffffff;stop-opacity:0.09803922" />
      <stop
         style="stop-color:#ffffff;stop-opacity:0.49803922"
         offset="1"
         id="stop925" />
    </linearGradient>
    <linearGradient
       gradientTransform="matrix(0.26458333,0,0,0.26458333,-84.666282,-16.007297)"
       inkscape:collect="always"
       xlink:href="#linearGradient2380"
       id="linearGradient3542"
       x1="352"
       y1="85"
       x2="352"
       y2="91"
       gradientUnits="userSpaceOnUse" />
    <linearGradient
       inkscape:collect="always"
       id="linearGradient2380">
      <stop
         style="stop-color:#f69923;stop-opacity:1"
         offset="0"
         id="stop2376" />
      <stop
         id="stop2384"
         offset="0.33127922"
         style="stop-color:#cc2235;stop-opacity:1" />
      <stop
         style="stop-color:#b02050;stop-opacity:1"
         offset="0.66221952"
         id="stop2386" />
      <stop
         style="stop-color:#7c28d7;stop-opacity:1"
         offset="1"
         id="stop2378" />
    </linearGradient>
    <linearGradient
       gradientTransform="matrix(0.26458333,0,0,0.26458333,-84.666282,-16.007297)"
       inkscape:collect="always"
       xlink:href="#linearGradient2380"
       id="linearGradient3544"
       x1="344"
       y1="81"
       x2="344"
       y2="95"
       gradientUnits="userSpaceOnUse" />
    <linearGradient
       gradientTransform="matrix(0.26458333,0,0,0.26458333,-84.666282,-16.007297)"
       inkscape:collect="always"
       xlink:href="#linearGradient2380"
       id="linearGradient3546"
       x1="336"
       y1="85"
       x2="336"
       y2="91"
       gradientUnits="userSpaceOnUse" />
    <linearGradient
       inkscape:collect="always"
       xlink:href="#linearGradient4338"
       id="linearGradient1024"
       gradientUnits="userSpaceOnUse"
       gradientTransform="matrix(0,-0.02997233,0.02997147,0,-3.0396584,13.626036)"
       x1="459.03448"
       y1="419.23337"
       x2="35.310345"
       y2="207.36522" />
    <linearGradient
       inkscape:collect="always"
       id="linearGradient4338">
      <stop
         style="stop-color:#f2f2f2;stop-opacity:1"
         offset="0"
         id="stop4340" />
      <stop
         style="stop-color:#f9f9f9;stop-opacity:1"
         offset="1"
         id="stop4342" />
    </linearGradient>
  </defs>
  <sodipodi:namedview
     pagecolor="#ffffff"
     bordercolor="#666666"
     borderopacity="1"
     objecttolerance="10"
     gridtolerance="10"
     guidetolerance="10"
     inkscape:pageopacity="0"
     inkscape:pageshadow="2"
     inkscape:window-width="1920"
     inkscape:window-height="1024"
     id="namedview37"
     showgrid="false"
     inkscape:zoom="4.9166667"
     inkscape:cx="-16.677966"
     inkscape:cy="24"
     inkscape:window-x="0"
     inkscape:window-y="28"
     inkscape:window-maximized="1"
     inkscape:current-layer="svg35" />
  <linearGradient
     id="a"
     gradientUnits="userSpaceOnUse"
     x1="344"
     x2="344"
     y1="62"
     y2="106">
    <stop
       offset="0"
       stop-color="#fff"
       id="stop2" />
    <stop
       offset=".125"
       stop-color="#fff"
       stop-opacity=".098039"
       id="stop4" />
    <stop
       offset=".92500001"
       stop-color="#fff"
       stop-opacity=".098039"
       id="stop6" />
    <stop
       offset="1"
       stop-color="#fff"
       stop-opacity=".498039"
       id="stop8" />
  </linearGradient>
  <clipPath
     id="b">
    <path
       d="m335.73108 62c-8.82418 0-9.77365.90635-9.7304 9.74838v12.25162 12.25162c-.0433 8.84203.90622 9.74838 9.7304 9.74838h16.53919c8.82418 0 9.7304-.90625 9.7304-9.74838v-12.25162-12.25162c0-8.84213-.90622-9.74838-9.7304-9.74838z"
       id="path11" />
  </clipPath>
  <linearGradient
     id="c"
     gradientTransform="matrix(0 -.02997233 .02997147 0 -3.039659 297.92607)"
     gradientUnits="userSpaceOnUse"
     x1="459.03448"
     x2="35.310345"
     y1="419.23337"
     y2="207.36522">
    <stop
       offset="0"
       stop-color="#f2f2f2"
       id="stop14" />
    <stop
       offset="1"
       stop-color="#f9f9f9"
       id="stop16" />
  </linearGradient>
  <path
     style="color:#000000;font-style:normal;font-variant:normal;font-weight:normal;font-stretch:normal;font-size:medium;line-height:normal;font-family:sans-serif;font-variant-ligatures:normal;font-variant-position:normal;font-variant-caps:normal;font-variant-numeric:normal;font-variant-alternates:normal;font-feature-settings:normal;text-indent:0;text-align:start;text-decoration:none;text-decoration-line:none;text-decoration-style:solid;text-decoration-color:#000000;letter-spacing:normal;word-spacing:normal;text-transform:none;writing-mode:lr-tb;direction:ltr;text-orientation:mixed;dominant-baseline:auto;baseline-shift:baseline;text-anchor:start;white-space:normal;shape-padding:0;clip-rule:nonzero;display:inline;overflow:visible;visibility:visible;opacity:0.1;isolation:auto;mix-blend-mode:normal;color-interpolation:sRGB;color-interpolation-filters:linearRGB;solid-color:#000000;solid-opacity:1;vector-effect:none;fill:#000000;fill-opacity:1;fill-rule:nonzero;stroke:none;stroke-width:0.52916664;stroke-linecap:butt;stroke-linejoin:miter;stroke-miterlimit:4;stroke-dasharray:none;stroke-dashoffset:0;stroke-opacity:1;marker:none;color-rendering:auto;image-rendering:auto;shape-rendering:auto;text-rendering:auto;enable-background:accumulate"
     d="M 4.1624031,0.39686967 C 3.5742608,0.38791067 3.1110335,0.41041107 2.729933,0.47438437 2.3488298,0.53835637 2.036976,0.6583489 1.8085401,0.88624537 1.5801068,1.1141421 1.4595388,1.4258554 1.3961631,1.8071194 1.3327875,2.1883838 1.3204156,2.6525534 1.3232995,3.2421739 v 3.2401124 3.2416626 c -0.00286,0.5887141 0.00955,1.0526491 0.072864,1.4335031 0.063376,0.381265 0.1839437,0.692978 0.412377,0.920875 0.2284359,0.227896 0.5402897,0.34789 0.9213929,0.411861 0.3811032,0.06397 0.844259,0.07752 1.4324701,0.07752 h 4.3759596 c 0.5882111,0 1.0511261,-0.01352 1.4314382,-0.07752 0.3803117,-0.064 0.6912127,-0.184399 0.9188047,-0.412377 0.227595,-0.227978 0.347451,-0.53947 0.411345,-0.920359 0.06389,-0.380886 0.07752,-0.844114 0.07752,-1.4335031 v -3.2416626 -3.175 L 8.5383627,0.46353224 Z"
     id="path1020"
     inkscape:connector-curvature="0"
     sodipodi:nodetypes="sccsccccccsscccscccs" />
  <path
     style="color:#000000;display:inline;overflow:visible;visibility:visible;opacity:0.2;fill:none;fill-opacity:1;fill-rule:nonzero;stroke:#000000;stroke-width:0.52916664;stroke-miterlimit:4;stroke-dasharray:none;stroke-opacity:1;marker:none;enable-background:accumulate"
     d="m 4.1625645,0.39686967 c -2.334731,0 -2.585945,0.23980511 -2.5745017,2.57925883 V 6.217703 9.4592774 c -0.011457,2.3394536 0.2397707,2.5792586 2.5745017,2.5792586 h 4.375994 c 2.3347305,0 2.5745015,-0.239779 2.5745015,-2.5792586 V 6.217703 l -1.77e-4,-3.175 -2.6458334,-2.64583333 z"
     id="path958"
     inkscape:connector-curvature="0"
     sodipodi:nodetypes="scccssscccs" />
  <path
     style="color:#000000;display:inline;overflow:visible;visibility:visible;fill:url(#linearGradient1024);fill-opacity:1;fill-rule:nonzero;stroke:none;stroke-width:0.26458332;marker:none;enable-background:accumulate"
     d="m 4.1625645,0.39686967 c -2.334731,0 -2.585945,0.23980511 -2.5745017,2.57925883 V 6.217703 9.4592774 c -0.011457,2.3394536 0.2397707,2.5792586 2.5745017,2.5792586 h 4.375994 c 2.3347305,0 2.5745015,-0.239779 2.5745015,-2.5792586 V 6.217703 l -1.77e-4,-3.175 -2.6458334,-2.64583333 z"
     id="path964"
     inkscape:connector-curvature="0"
     sodipodi:nodetypes="scccssscccs" />
  <path
     inkscape:connector-curvature="0"
     id="path943"
     style="font-style:normal;font-variant:normal;font-weight:normal;font-stretch:normal;font-size:medium;line-height:125%;font-family:Ubuntu;-inkscape-font-specification:'Ubuntu, Normal';text-align:center;letter-spacing:0px;word-spacing:0px;writing-mode:lr-tb;text-anchor:middle;display:inline;fill:url(#linearGradient3546);fill-opacity:1;stroke:none;stroke-width:0.26458332px;stroke-linecap:butt;stroke-linejoin:miter;stroke-opacity:1;enable-background:new"
     d="M 3.6401155,7.2761474 5.2420327,7.9349652 5.1247112,8.282424 3.1753326,7.4566462 V 7.0956487 l 1.9493786,-0.825777 0.1173215,0.3474579 z" />
  <path
     inkscape:connector-curvature="0"
     id="path945"
     style="font-style:normal;font-variant:normal;font-weight:normal;font-stretch:normal;font-size:medium;line-height:125%;font-family:Ubuntu;-inkscape-font-specification:'Ubuntu, Normal';text-align:center;letter-spacing:0px;word-spacing:0px;writing-mode:lr-tb;text-anchor:middle;display:inline;fill:url(#linearGradient3544);fill-opacity:1;stroke:none;stroke-width:0.26458332px;stroke-linecap:butt;stroke-linejoin:miter;stroke-opacity:1;enable-background:new"
     d="M 5.8036214,9.4601717 H 5.3749382 L 6.9046585,5.0921231 h 0.4196583 z" />
  <path
     inkscape:connector-curvature="0"
     id="path947"
     style="font-style:normal;font-variant:normal;font-weight:normal;font-stretch:normal;font-size:medium;line-height:125%;font-family:Ubuntu;-inkscape-font-specification:'Ubuntu, Normal';text-align:center;letter-spacing:0px;word-spacing:0px;writing-mode:lr-tb;text-anchor:middle;display:inline;fill:url(#linearGradient3542);fill-opacity:1;stroke:none;stroke-width:0.26458332px;stroke-linecap:butt;stroke-linejoin:miter;stroke-opacity:1;enable-background:new"
     d="M 7.4586325,6.6173296 7.5759567,6.2698717 9.5253326,7.0956487 V 7.4566462 L 7.5759567,8.282424 7.4586325,7.9349652 9.0605523,7.2761474 Z" />
  <path
     style="color:#000000;display:inline;overflow:visible;visibility:visible;opacity:0.2;fill:#ffffff;fill-opacity:1;fill-rule:nonzero;stroke:none;stroke-width:0.26458332;marker:none;enable-background:accumulate"
     d="m 1.5878829,6.217703 v 3.2416625 c -0.011457,2.3394525 0.2397892,2.5791705 2.5745202,2.5791705 h 4.3759596 c 2.3347313,0 2.5745203,-0.239691 2.5745203,-2.5791705 V 6.217703 Z"
     id="path1006"
     inkscape:connector-curvature="0" />
  <path
     style="color:#000000;display:inline;overflow:visible;visibility:visible;opacity:0.1;fill:#ffffff;fill-opacity:1;fill-rule:nonzero;stroke:none;stroke-width:0.26458332;marker:none;enable-background:accumulate"
     d="M 6.3503829,0.39686967 V 12.038536 h 2.1879798 c 2.3347313,0 2.5745203,-0.239691 2.5745203,-2.5791705 V 6.217703 3.042703 L 8.4670496,0.39686967 Z"
     id="path1013"
     inkscape:connector-curvature="0"
     sodipodi:nodetypes="ccsscccc" />
  <path
     style="color:#000000;font-style:normal;font-variant:normal;font-weight:normal;font-stretch:normal;font-size:medium;line-height:normal;font-family:sans-serif;font-variant-ligatures:normal;font-variant-position:normal;font-variant-caps:normal;font-variant-numeric:normal;font-variant-alternates:normal;font-feature-settings:normal;text-indent:0;text-align:start;text-decoration:none;text-decoration-line:none;text-decoration-style:solid;text-decoration-color:#000000;letter-spacing:normal;word-spacing:normal;text-transform:none;writing-mode:lr-tb;direction:ltr;text-orientation:mixed;dominant-baseline:auto;baseline-shift:baseline;text-anchor:start;white-space:normal;shape-padding:0;clip-rule:nonzero;display:inline;overflow:visible;visibility:visible;opacity:0.4;isolation:auto;mix-blend-mode:normal;color-interpolation:sRGB;color-interpolation-filters:linearRGB;solid-color:#000000;solid-opacity:1;vector-effect:none;fill:url(#linearGradient1004);fill-opacity:1;fill-rule:nonzero;stroke:none;stroke-width:0.52916664;stroke-linecap:butt;stroke-linejoin:miter;stroke-miterlimit:4;stroke-dasharray:none;stroke-dashoffset:0;stroke-opacity:1;marker:none;color-rendering:auto;image-rendering:auto;shape-rendering:auto;text-rendering:auto;enable-background:accumulate"
     clip-path="none"
     d="m 4.1624031,0.39686967 c -2.334731,0 -2.5859635,0.239717 -2.5745202,2.57917073 V 6.217703 9.4593655 c -0.011457,2.3394525 0.2397892,2.5791705 2.5745202,2.5791705 h 4.3759596 c 2.3347313,0 2.5745203,-0.239691 2.5745203,-2.5791705 V 6.217703 3.042703 H 10.8483 v 3.175 3.2416625 c 0,0.5803505 -0.01625,1.0241215 -0.07028,1.3461695 -0.05402,0.322051 -0.139878,0.509149 -0.264068,0.633556 -0.12419,0.124394 -0.310716,0.21051 -0.632002,0.264583 -0.3212889,0.05406 -0.7644342,0.07028 -1.3435886,0.07028 H 4.1624031 c -0.5791544,0 -1.0228501,-0.01619 -1.3451391,-0.07028 C 2.4949777,11.649569 2.3069436,11.563577 2.1821608,11.439091 2.0573807,11.314596 1.9715631,11.127724 1.9180961,10.806054 1.8646264,10.484384 1.8496246,10.040505 1.8524662,9.460399 V 9.4598698 6.217703 2.9755237 2.9749945 C 1.8496362,2.3948881 1.8646372,1.9510107 1.9180962,1.6293401 1.9715662,1.3076694 2.0573808,1.1207903 2.1821609,0.99630385 2.3069411,0.87181739 2.4954964,0.78581987 2.8177827,0.73172052 3.140069,0.67764602 3.5832488,0.66145302 4.1624032,0.66145302 H 8.4670497 V 0.39686968 Z"
     id="path990"
     inkscape:connector-curvature="0" />
  <path
     inkscape:connector-curvature="0"
     style="color:#000000;display:inline;overflow:visible;visibility:visible;opacity:0.2;fill:#000000;fill-opacity:1;fill-rule:nonzero;stroke:none;stroke-width:0.06615189;marker:none;enable-background:accumulate"
     d="M 11.112883,3.3072863 V 3.042703 L 8.4670496,0.39686967 H 8.2024662 v 1.11364553 0.04267 0.022918 c 0,1.506003 0.2016019,1.7382252 1.7110604,1.7308441 z"
     id="rect4158-0-3-62-2"
     sodipodi:nodetypes="ccccccscc" />
  <path
     inkscape:connector-curvature="0"
     style="color:#000000;display:inline;overflow:visible;visibility:visible;fill:#faf8f6;fill-opacity:1;fill-rule:nonzero;stroke:none;stroke-width:0.06615189;marker:none;enable-background:accumulate"
     d="M 11.112883,3.0423643 8.4670496,0.39686914 v 0.98132416 0.04267 0.022918 c 0,1.5060031 0.069406,1.6059637 1.5788644,1.5985826 z"
     id="rect4158-0-3-62"
     sodipodi:nodetypes="ccccscc" />
</svg>
